X:284
M:4/4
L:1/4
K:D
A | B A c d | G3 F | E B A B | E3 F | F E D d | c B A !sintro!D | G F E E | D3 !eintro!|]
